!!!COM: Music21
!!!OTL: Rumba Corrida
!!!OMV: pezas_rumbas_rumba-corrida_rumba-corrida-partitura.musicxml
**kern
*I"Bagpipes
*I'Bag
*clefG^2
*k[]
*M2/4
=1
!LO:TX:a:t=Andante
*MM96
!LO:TX:a:t=[quarter]=96
4r
8ggL
8ggJ
=||
16ggLL
16aa
16gg
16ffJJ
8eeL
8ddJ
=
4cc
8ddL
8eeJ
=
8.ffL
16ggJk
8ffL
8eeJ
=
4dd
8ffL
8ffJ
=
16ffLL
16gg
16ff
16eeJJ
8ddL
8ccJ
=
4b
8ccL
8ddJ
=
8eeL
16ffL
16eeJJ
8ddL
16eeL
16ddJJ
=
4cc
8ggL
8ggJ
!!linebreak:original
=||
16ggLL
16aa
16gg
16ffJJ
8eeL
8ddJ
=
4cc
8ddL
8eeJ
=
8.ffL
16ggJk
8ffL
8eeJ
=
4dd
8ffL
8ffJ
=
16ffLL
16gg
16ff
16eeJJ
8ddL
8ccJ
=
4b
8ccL
8ddJ
=
8eeL
16ffL
16eeJJ
8ddL
16eeL
16ddJJ
!!linebreak:original
=
4cc
8ccL
8eeJ
=||
8.ggL
16eeJk
8ggL
8eeJ
=
4gg
8eeL
8ffJ
=
8ggL
16aaL
16ggJJ
8ffL
8eeJ
=
4dd
8bL
8ccJ
=
8.ffL
16ddJk
8ffL
8ddJ
=
4ff
8ddL
8ddJ
=
16ggLL
16aa
16gg
16ffJJ
8eeL
8ddJ
=
4cc
8ccL
8eeJ
=||
8.ggL
16eeJk
8ggL
8eeJ
!!linebreak:original
=
4gg
8eeL
8ffJ
=
8ggL
16aaL
16ggJJ
8ffL
8eeJ
=
4dd
8bL
8ccJ
=
8.ffL
16ddJk
8ffL
8ddJ
=
4ff
8ddL
8ddJ
=
16ggLL
16aa
16gg
16ffJJ
8eeL
8ddJ
!!linebreak:original
=||
[2cc
=
4cc]
8ggL
8ggJ
=||
[2cc
=
4cc]
8ggL
8cccJ
==
*-
